contributed-vectors/samsung_link_sharing.svg

<svg xmlns="http://www.w3.org/2000/svg" xml:space="preserve" style="fill-rule:evenodd;clip-rule:evenodd;stroke-linejoin:round;stroke-miterlimit:2" viewBox="0 0 192 192"><path d="M164.5 21.5c0-5.519-4.481-10-10-10h-133c-5.519 0-10 4.481-10 10v133c0 5.519 4.481 10 10 10h133c5.519 0 10-4.481 10-10v-133Z" style="fill:#ababff" transform="translate(8 8)"/><circle cx="44.598" cy="103.786" r="4.867" style="fill:#fff" transform="matrix(.73826 0 0 .73826 27.122 27.286)"/><path d="M69.131 123.92c-9.198 0-16.666-7.468-16.666-16.667 0-9.199 7.468-16.667 16.666-16.667.291 0 .58.008.866.022 1.391-15.58 14.498-27.812 30.439-27.812 15.933 0 29.035 12.219 30.438 27.791l.124-.001c9.199 0 16.667 7.468 16.667 16.667 0 9.199-7.468 16.667-16.667 16.667H69.131Zm19.758-28.352a3.514 3.514 0 0 1 0-4.966 3.514 3.514 0 0 1 4.966 0l13.466 13.466-13.482 13.482a3.514 3.514 0 0 1-4.95-.016 3.514 3.514 0 0 1 0-4.966l8.501-8.5-8.501-8.5Zm-25.491 3.633a4.87 4.87 0 0 1 4.867 4.867 4.87 4.87 0 0 1-4.867 4.867 4.87 4.87 0 0 1-4.867-4.867 4.87 4.87 0 0 1 4.867-4.867Zm15.867 0a4.869 4.869 0 0 1 4.866 4.867 4.869 4.869 0 0 1-4.866 4.867 4.87 4.87 0 0 1-4.867-4.867 4.87 4.87 0 0 1 4.867-4.867Z" style="fill:#fff" transform="matrix(.73826 0 0 .73826 26.532 27.078)"/></svg>

<?xml version="1.0" encoding="UTF-8" standalone="no"?>
<!DOCTYPE svg PUBLIC "-//W3C//DTD SVG 1.1//EN" "http://www.w3.org/Graphics/SVG/1.1/DTD/svg11.dtd">
<svg width="100%" height="100%" viewBox="0 0 192 192" version="1.1" xmlns="http://www.w3.org/2000/svg" xmlns:xlink="http://www.w3.org/1999/xlink" xml:space="preserve" xmlns:serif="http://www.serif.com/" style="fill-rule:evenodd;clip-rule:evenodd;stroke-linejoin:round;stroke-miterlimit:2;">
    <g id="Layer1">
        <g transform="matrix(1,0,0,1,8,8)">
            <path d="M164.5,21.5C164.5,15.981 160.019,11.5 154.5,11.5L21.5,11.5C15.981,11.5 11.5,15.981 11.5,21.5L11.5,154.5C11.5,160.019 15.981,164.5 21.5,164.5L154.5,164.5C160.019,164.5 164.5,160.019 164.5,154.5L164.5,21.5Z" style="fill:rgb(171,171,255);"/>
        </g>
        <g transform="matrix(0.738256,0,0,0.738256,26.5315,27.0779)">
            <g transform="matrix(1,0,0,1,0.8,0.28174)">
                <circle cx="44.598" cy="103.786" r="4.867" style="fill:white;"/>
            </g>
            <path d="M69.131,123.92C59.933,123.92 52.465,116.452 52.465,107.253C52.465,98.054 59.933,90.586 69.131,90.586C69.422,90.586 69.711,90.594 69.997,90.608C71.388,75.028 84.495,62.796 100.436,62.796C116.369,62.796 129.471,75.015 130.874,90.587C130.915,90.586 130.957,90.586 130.998,90.586C140.197,90.586 147.665,98.054 147.665,107.253C147.665,116.452 140.197,123.92 130.998,123.92C130.998,123.92 69.131,123.92 69.131,123.92ZM88.889,95.568C87.519,94.198 87.519,91.973 88.889,90.602C90.26,89.232 92.485,89.232 93.855,90.602L107.321,104.068L93.839,117.55C92.467,118.904 90.254,118.899 88.889,117.534C87.519,116.164 87.519,113.939 88.889,112.568L97.39,104.068L88.889,95.568ZM63.398,99.201C66.084,99.201 68.265,101.382 68.265,104.068C68.265,106.754 66.084,108.935 63.398,108.935C60.712,108.935 58.531,106.754 58.531,104.068C58.531,101.382 60.712,99.201 63.398,99.201ZM79.265,99.201C81.951,99.201 84.131,101.382 84.131,104.068C84.131,106.754 81.951,108.935 79.265,108.935C76.579,108.935 74.398,106.754 74.398,104.068C74.398,101.382 76.579,99.201 79.265,99.201Z" style="fill:white;"/>
        </g>
    </g>
</svg>
